!!!COM: Mendelssohn, Felix
!!!CDT: 1809/02/03-1847/11/04
!!!OPR: Sechs vierstimmige Lieder
!!!OTL: Im Grünen
!!!OPS: Op. 59
!!!ONM: Nr. 1
!!!OMD: Andante con moto
**kern	**text	**text	**text	**dynam	**kern	**text	**text	**text	**dynam	**kern	**text	**text	**text	**dynam	**kern	**text	**text	**text	**dynam
*part4	*part4	*part4	*part4	*part4	*part3	*part3	*part3	*part3	*part3	*part2	*part2	*part2	*part2	*part2	*part1	*part1	*part1	*part1	*part1
*staff4	*staff4	*staff4	*staff4	*	*staff3	*staff3	*staff3	*staff3	*	*staff2	*staff2	*staff2	*staff2	*	*staff1	*staff1	*staff1	*staff1	*
*Ivox	*	*	*	*	*Ivox	*	*	*	*	*Ivox	*	*	*	*	*Ivox	*	*	*	*
*I"Bass	*	*	*	*	*I"Tenor	*	*	*	*	*I"Alt	*	*	*	*	*I"Sopran	*	*	*	*
*clefF4	*	*	*	*	*clefGv2	*	*	*	*	*clefG2	*	*	*	*	*clefG2	*	*	*	*
*k[f#c#g#]	*	*	*	*	*k[f#c#g#]	*	*	*	*	*k[f#c#g#]	*	*	*	*	*k[f#c#g#]	*	*	*	*
*A:	*	*	*	*	*A:	*	*	*	*	*A:	*	*	*	*	*A:	*	*	*	*
*M9/8	*	*	*	*	*M9/8	*	*	*	*	*M9/8	*	*	*	*	*M9/8	*	*	*	*
*MM112	*	*	*	*	*MM112	*	*	*	*	*MM112	*	*	*	*	*MM112	*	*	*	*
=	=	=	=	=	=	=	=	=	=	=	=	=	=	=	=	=	=	=	=
*	*v:1	*v:2	*v:3	*	*	*v:1	*v:2	*v:3	*	*	*v:1	*v:2	*v:3	*	*	*v:1	*v:2	*v:3	*
8A	Im	Was	Wie	mf	8c#	Im	Was	Wie	mf	8e	Im	Was	Wie	mf	8e	Im	Was	Wie	mf
4A	Grün	such’st	hol-	.	4c#	Grün	such’st	hol-	.	4e	Grün	such’st	hol-	.	8eL	Grün	such’st	hol-	.
.	.	.	.	.	.	.	.	.	.	.	.	.	.	.	8cc#J	.	.	.	.
8A	er-	der	-de	.	8c#	er-	der	-de	.	8e	er-	der	-de	.	8a	er-	der	-de	.
=1	=1	=1	=1	=1	=1	=1	=1	=1	=1	=1	=1	=1	=1	=1	=1	=1	=1	=1	=1
[4.A	-wacht	Mau-	Kind-	.	(4.c#	-wacht	Mau-	Kind-	.	(4.e	-wacht	Mau-	Kind-	.	(4.g#	-wacht	Mau-	Kind-	.
4A]	.	.	.	.	4d)	.	.	.	.	4d)	.	.	.	.	4f#)	.	.	.	.
8A	der	-ern	-lein	<	8d	der	-ern	-lein	<	8f#	der	-ern	-lein	<	8f#	der	-ern	-lein	<
4A	fri-	en-	spielt	(	4d	fri-	en-	spielt	(	4f#	fri-	en-	spielt	(	(8f#L	fri-	en-	spielt	(
.	.	.	.	(	.	.	.	.	(	.	.	.	.	(	8ddJ)	.	.	.	(
8A	-sche	-gen	um	[	8d	-sche	-gen	um	[	8f#	-sche	-gen	um	[	8b	-sche	-gen	um	[
=2	=2	=2	=2	=2	=2	=2	=2	=2	=2	=2	=2	=2	=2	=2	=2	=2	=2	=2	=2
[4.A	Muth,	Raum,	dich	.	[4.d	Muth,	Raum,	dich	.	[4.e	Muth,	Raum,	dich	.	[4.g#	Muth,	Raum,	dich	.
4A]	.	.	.	.	4d]	.	.	.	.	4e]	.	.	.	.	4g#]	.	.	.	.
8A	wenn	du	ihr	.	8d	wenn	du	ihr	.	8g#	wenn	du	ihr	.	8b	wenn	du	ihr	.
4A	blau	thö-	O-	.	4B	blau	thö-	O-	.	4g#	blau	thö-	O-	.	4dd	blau	thö-	O-	.
8A	der	-rigt	-dem	.	8d	der	-rigt	-dem	.	8g#	der	-rigt	-dem	.	8ff#	der	-rigt	-dem	.
=3	=3	=3	=3	=3	=3	=3	=3	=3	=3	=3	=3	=3	=3	=3	=3	=3	=3	=3	=3
(4.A	Him-	Men-	wun-	.	[4.c#	Him-	Men-	wun-	.	2.a	Him-	Men-	wun-	.	[4.ee	Him-	Men-	wun-	.
4.E)	.	.	.	.	(4c#]	.	.	.	.	.	.	.	.	.	(4ee]	.	.	.	.
.	.	.	.	.	8e)	.	.	.	.	.	.	.	.	.	8cc#)	.	.	.	.
4.E	-mel	-schen-	-der-	.	(4d	-mel	-schen-	-der-	.	4.g#	-mel	-schen-	-der-	.	(4b	-mel	-schen-	-der-	.
.	.	.	.	.	8e)	.	.	.	.	.	.	.	.	.	8cc#)	.	.	.	.
=4	=4	=4	=4	=4	=4	=4	=4	=4	=4	=4	=4	=4	=4	=4	=4	=4	=4	=4	=4
4AA	blickt.	-kind?	-lieb,	.	4c#	blickt.	-kind?	-lieb,	.	4a	blickt.	-kind?	-lieb,	.	[4.a	blickt.	-kind?	-lieb,	.
8A	Im	Komm,	und	p	8c#	Im	Komm,	und	p	8e	Im	Komm,	und	p	.	.	.	.	.
4A	Grü-	fühl’	nimmt	.	4c#	Grü-	fühl’	nimmt	.	4e	Grü-	fühl’	nimmt	.	4a]	.	.	.	.
8A	-nen	hier	all’	.	8c#	-nen	hier	all’	.	8e	-nen	hier	all’	.	8r	.	.	.	.
4A	da	un-	dei-	.	4c#	da	un-	dei-	.	4e	da	un-	dei-	.	4.cc#	Im	Komm,	und	.
8A	geht	-ter’m	-nen	.	8c#	geht	-ter’m	-nen	.	8e	geht	-ter’m	-nen	.	.	.	.	.	.
=5	=5	=5	=5	=5	=5	=5	=5	=5	=5	=5	=5	=5	=5	=5	=5	=5	=5	=5	=5
*E:	*	*	*	*	*E:	*	*	*	*	*E:	*	*	*	*	*E:	*	*	*	*
2.A	al-	grü-	Gram	<	2.d#X	al-	grü-	Gram	<	2.f#	al-	grü-	Gram	<	4cc#	Grü-	fühl’	nimmt	.
.	.	.	.	.	.	.	.	.	.	.	.	.	.	.	8b	-nen	hier	all’	.
.	.	.	.	.	.	.	.	.	.	.	.	.	.	.	4cc#	da	un-	dei-	.
.	.	.	.	.	.	.	.	.	.	.	.	.	.	.	8b	geht	-ter’m	-nen	.
.	.	.	.	.	.	.	.	.	.	.	.	.	.	.	8qdd#X/	.	.	.	.
4.A	-les	-nen	mit	.	4.d#	-les	-nen	mit	.	4.f#	-les	-nen	mit	.	4cc#	al-	grü-	Gram	.
.	.	.	.	.	.	.	.	.	.	.	.	.	.	.	8b	-les	-nen	mit	.
=6	=6	=6	=6	=6	=6	=6	=6	=6	=6	=6	=6	=6	=6	=6	=6	=6	=6	=6	=6
4G#	gut,	Baum,	sich,	.	4e	gut,	Baum,	sich,	.	4b	gut,	Baum,	sich,	.	2.b	gut,	Baum,	sich,	.
8G#	im	komm,	und	p	8B	im	komm,	und	p	8e	im	komm,	und	p	.	.	.	.	.
4G#	Grü-	fühl’	nimmt	.	4B	Grü-	fühl’	nimmt	.	4e	Grü-	fühl’	nimmt	.	.	.	.	.	.
8G#	-nen	hier	all’	.	8B	-nen	hier	all’	.	8e	-nen	hier	all’	.	.	.	.	.	.
4G#	da	un-	dei-	.	4B	da	un-	dei-	.	4e	da	un-	dei-	.	4.b	im	komm,	und	.
8G#	geht	-ter’m	-nen	.	8B	geht	-ter’m	-nen	.	8e	geht	-ter’m	-nen	.	.	.	.	.	.
=7	=7	=7	=7	=7	=7	=7	=7	=7	=7	=7	=7	=7	=7	=7	=7	=7	=7	=7	=7
2.F#	al-	grü-	Gram	<	2.c#	al-	grü-	Gram	<	2.e	al-	grü-	Gram	<	4a	Grü-	fühl’	nimmt	.
.	.	.	.	.	.	.	.	.	.	.	.	.	.	.	8g#	-nen	hier	all’	.
.	.	.	.	.	.	.	.	.	.	.	.	.	.	.	4a	da	un-	dei-	.
.	.	.	.	.	.	.	.	.	.	.	.	.	.	.	8a	geht	-ter’m	-nen	.
4.F#	-les	-nen	mit	.	4.A	-les	-nen	mit	.	4.d#X	-les	-nen	mit	.	4cc#	al-	grü-	Gram	.
.	.	.	.	.	.	.	.	.	.	.	.	.	.	.	8a	-les	-nen	mit	.
=8	=8	=8	=8	=8	=8	=8	=8	=8	=8	=8	=8	=8	=8	=8	=8	=8	=8	=8	=8
[4.E	gut,	Baum,	sich,	.	(4.c#	gut,	Baum,	sich,	.	[4.e	gut,	Baum,	sich,	.	(4.a	gut,	Baum,	sich,	.
4E]	.	.	.	.	4B)	.	.	.	.	4e]	.	.	.	.	4g#)	.	.	.	.
*b:	*	*	*	*	*b:	*	*	*	*	*b:	*	*	*	*	*b:	*	*	*	*
8C#	was	wie	du	f	8A#X	was	wie	du	f	8gn	was	wie	du	f	8ee	was	wie	du	f
4Dn	je	süss	weisst	sf	4B	je	süss	weisst	sf	4f#	je	süss	weisst	sd	4ddn	je	süss	weisst	sf
8E	das	die	nicht	.	8e	das	die	nicht	.	8g	das	die	nicht	.	8cc#	das	die	nicht	.
=9	=9	=9	=9	=9	=9	=9	=9	=9	=9	=9	=9	=9	=9	=9	=9	=9	=9	=9	=9
2.F#	Herz	Lüf-	wo	<	(4.dn	Herz	Lüf-	wo	<	2.f#	Herz	Lüf-	wo	<	(4.b	Herz	Lüf-	wo	<
.	.	.	.	(	4.e)	.	.	.	(	.	.	.	.	(	4.cc#)	.	.	.	(
4.F#	be-	-te	er	[	4.A#X	be-	-te	er	[	4.e	be-	-te	er	[	4.f#	be-	-te	er	[
=10	=10	=10	=10	=10	=10	=10	=10	=10	=10	=10	=10	=10	=10	=10	=10	=10	=10	=10	=10
[4.BB	-drückt,	sind,	blieb,	.	[4.B	-drückt,	sind,	blieb,	.	[4.dn	-drückt,	sind,	blieb,	.	[4.dd	-drückt,	sind,	blieb,	.
4BB]	.	.	.	.	4B]	.	.	.	.	4d]	.	.	.	.	4dd]	.	.	.	.
*A:	*	*	*	*	*A:	*	*	*	*	*A:	*	*	*	*	*A:	*	*	*	*
8C#	was	wie	du	.	8A#X	was	wie	du	.	8e	was	wie	du	.	8cc#	was	wie	du	.
4D	je	süss	weisst	.	4B	je	süss	weisst	.	4f#	je	süss	weisst	.	4b	je	süss	weisst	.
8D	das	die	nicht	.	8d	das	die	nicht	.	8f#	das	die	nicht	.	8a	das	die	nicht	.
=11	=11	=11	=11	=11	=11	=11	=11	=11	=11	=11	=11	=11	=11	=11	=11	=11	=11	=11	=11
2.E	Herz	Lüf-	wo	.	2.c#	Herz	Lüf-	wo	.	2.e	Herz	Lüf-	wo	.	(4.a	Herz	Lüf-	wo	.
.	.	.	.	.	.	.	.	.	.	.	.	.	.	.	4cc#	.	.	.	.
.	.	.	.	.	.	.	.	.	.	.	.	.	.	.	8b)	.	.	.	.
4.E	be-	-te	er	.	4.d	be-	-te	er	.	4.e	be-	-te	er	.	(4a	be-	-te	er	.
.	.	.	.	.	.	.	.	.	.	.	.	.	.	.	8g#)	.	.	.	.
=12	=12	=12	=12	=12	=12	=12	=12	=12	=12	=12	=12	=12	=12	=12	=12	=12	=12	=12	=12
4A	-drückt,	sind,	blieb,	.	4c#	-drückt,	sind,	blieb,	.	4e	-drückt,	sind,	blieb,	.	[2.a	-drückt,	sind,	blieb,	p
8AA	was	wie	du	p	8c#	was	wie	du	p	8e	was	wie	du	p	.	.	.	.	.
4AA	je	süss	weisst	.	4d	je	süss	weisst	.	4f#	je	süss	weisst	.	.	.	.	.	.
8AA	das	die	nicht	.	8c#	das	die	nicht	.	8e	das	die	nicht	.	.	.	.	.	.
4AA	Herz	Lüf-	wo	.	4d	Herz	Lüf-	wo	.	4f#	Herz	Lüf-	wo	.	4.a_	.	.	.	.
8AA	be-	-te	er	.	8c#	be-	-te	er	.	8e	be-	-te	er	.	.	.	.	.	.
=13	=13	=13	=13	=13	=13	=13	=13	=13	=13	=13	=13	=13	=13	=13	=13	=13	=13	=13	=13
[2.AA	-drückt.	sind.	blieb.	.	(2.B	-drückt.	sind.	blieb.	.	[2.d	-drückt.	sind.	blieb.	.	4a]	.	.	.	.
.	.	.	.	.	.	.	.	.	.	.	.	.	.	.	8g#	was	wie	du	p
!	!	!	!	!	!	!	!	!	!	!	!	!	!	!	!LO:TX:a:t=< >	!	!	!	!
.	.	.	.	.	.	.	.	.	.	.	.	.	.	.	4dd	je	süss	weisst	.
.	.	.	.	.	.	.	.	.	.	.	.	.	.	.	8b	das	die	nicht	.
4.AA_	.	.	.	.	[4.e)	.	.	.	.	(4.d]	.	.	.	.	4a	Herz	Lüf-	wo	.
.	.	.	.	.	.	.	.	.	.	.	.	.	.	.	8g#	be-	-te	er	.
=14	=14	=14	=14	=14	=14	=14	=14	=14	=14	=14	=14	=14	=14	=14	=14	=14	=14	=14	=14
4.AA_	.	.	.	.	4.e_	.	.	.	.	[4.c#)	.	.	.	.	[4.a	-drückt.	sind.	blieb.	.
4AA;]	.	.	.	.	4e;]	.	.	.	.	4c#;]	.	.	.	.	4a;]	.	.	.	.
==	==	==	==	==	==	==	==	==	==	==	==	==	==	==	==	==	==	==	==
*-	*-	*-	*-	*-	*-	*-	*-	*-	*-	*-	*-	*-	*-	*-	*-	*-	*-	*-	*-
!!!system-decoration: ([s1,s2,s3,s4])
!!!RDF**kern: i = editorial accidental
!!!AGN: Choral
!!!YOR: https://mdz-nbn-resolving.de/details:bsb11379755
!!!YOO: München, Bayerische Staatsbibliothek
!!!URL-scan: https://www.digitale-sammlungen.de/de/view/bsb11379755?page=2
!!!EED: Wolfgang Drescher
!!!END: 2024/10/17
!!!ENC: Wolfgang Drescher
!!!EEV: 2024/12/17
!!!title: @{OPS} @{ONM}. @{OTL}